X:644
T:Miss Jane Grant, Lynmore
R:Reel
C:William Marshall
B:The Athole Collection
M:C|
L:1/8
K:F
C|~F2 FB AB/c/ AF|~F2 AF BGGA|~F2 FB AB/c/ AF|BGEG AF~FC|
~F2 FB AB/c/ AF|~F2 FA BGGA|~F2 FA cAcA|BGEG AFF||
f|afaf bgbg|afaf ec ~c2|afaf bgbg|afcb af ~f2|afaf bgbg|afaf ecec|
dBdB cAcA|BGEc AF ~F2||

